dist/assets/img/nhl/teams/tbl.svg

<svg xmlns="http://www.w3.org/2000/svg" viewBox="0 0 24 16"><g fill="#FFF"><path d="M20.076 7.28c0-1.638-1.019-3.253-2.826-4.245l-.692.55c1.235.777 1.962 1.938 1.962 3.257 0 3.076-3.802 5.862-8.032 5.862-.434 0-.859-.031-1.271-.093l-1.428 1.057a9.241 9.241 0 0 0 2.959.467c5.022 0 9.328-3.391 9.328-6.855"/><path d="M13.688 8.425l-2.584.505 5.73-4.71-2.668.358L19.352.465l-6.036 1.589a9.603 9.603 0 0 0-.24-.003c-4.947 0-9.152 3.362-9.152 6.91 0 1.74.938 3.125 2.391 4.022l-2.231 2.552 9.604-7.11zm-9.075.012c0-3.182 3.98-5.863 8.032-5.863l.084.001-3.917 4.381 2.252-.356-4.438 4.293 1.8-.325-1.258 1.438c-1.526-.725-2.555-1.972-2.555-3.569M17.7 12.076h.099v.3h.037v-.3h.104v-.036h-.24zm.433.237l-.087-.273h-.058v.336h.036v-.286l.09.286h.036l.09-.286v.286h.036v-.336h-.057z"/></g></svg>

<svg xmlns="http://www.w3.org/2000/svg" viewBox="0 0 24 16"><g fill="#FFF"><path d="M20.076,7.28c0-1.638-1.019-3.253-2.826-4.245l-0.692,0.55c1.235,0.777,1.962,1.938,1.962,3.257 c0,3.076-3.802,5.862-8.032,5.862c-0.434,0-0.859-0.031-1.271-0.093l-1.428,1.057c0.901,0.306,1.908,0.467,2.959,0.467 C15.77,14.135,20.076,10.744,20.076,7.28"/><path d="M13.688 8.425L11.104 8.93l5.73-4.71-2.668.358 5.186-4.113-6.036 1.589c-.08-.002-.16-.003-.24-.003-4.947 0-9.152 3.362-9.152 6.91 0 1.74.938 3.125 2.391 4.022l-2.231 2.552L13.688 8.425zM4.613 8.437c0-3.182 3.98-5.863 8.032-5.863.028 0 .056.001.084.001L8.812 6.956 11.064 6.6l-4.438 4.293 1.8-.325-1.258 1.438C5.642 11.281 4.613 10.034 4.613 8.437M17.7 12.076L17.799 12.076 17.799 12.376 17.836 12.376 17.836 12.076 17.94 12.076 17.94 12.04 17.7 12.04zM18.133 12.313L18.046 12.04 17.988 12.04 17.988 12.376 18.024 12.376 18.024 12.09 18.114 12.376 18.15 12.376 18.24 12.09 18.24 12.376 18.276 12.376 18.276 12.04 18.219 12.04z"/></g></svg>
